src/assets/curso/temas/tema_4/img_19.svg

<svg height="55.555" viewBox="0 0 55.555 55.555" width="55.555" xmlns="http://www.w3.org/2000/svg"><g transform="translate(-1232.51 -3266)"><g fill="#fff" stroke="#ffce79" stroke-linejoin="round" stroke-width="5"><circle cx="1260.287" cy="3293.777" r="22.777" stroke="none"/><circle cx="1260.287" cy="3293.777" fill="none" r="25.277"/></g><path d="m13.6 14h1.3v2.285h-1.3v2.715h-2.958v-2.716h-4.948l-.176-1.811 5.124-8.244v-.029h2.958zm-5.261 0h2.3v-3.938l-.185.3z" fill="#8c492a" transform="translate(1250.51 3283)"/></g></svg>

<svg xmlns="http://www.w3.org/2000/svg" width="55.555" height="55.555" viewBox="0 0 55.555 55.555">
  <g id="Grupo_1127834" data-name="Grupo 1127834" transform="translate(-1232.51 -3266)">
    <g id="Grupo_1127347" data-name="Grupo 1127347" transform="translate(1237.51 3271)">
      <g id="Elipse_157" data-name="Elipse 157" fill="#fff" stroke="#ffce79" stroke-linejoin="round" stroke-width="5">
        <circle cx="22.777" cy="22.777" r="22.777" stroke="none"/>
        <circle cx="22.777" cy="22.777" r="25.277" fill="none"/>
      </g>
    </g>
    <path id="Trazado_919702" data-name="Trazado 919702" d="M13.6,14h1.3v2.285H13.6V19H10.642V16.284H5.694l-.176-1.811,5.124-8.244V6.2H13.6ZM8.339,14h2.3V10.062l-.185.3Z" transform="translate(1250.51 3283)" fill="#8c492a"/>
  </g>
</svg>
